X: 35095
T: Rolling Waves, The
R: jig
M: 6/8
K: Dmajor
|:~F3 DED|D2d cAG|~F3 DED|A2F GFE|
~F3 DED|D2d cAG|~F3 ~G3|A2F GFE:|
|:D2d cAd|cAd cAG|F2d cAF|A2F GFE|
D2d cde|fed cAG|~F3 ~G3|A2F GFE:|

